symbols/web/table_chart/materialsymbolsoutlined/table_chart_24px.svg

<svg xmlns="http://www.w3.org/2000/svg" height="24" width="24"><path d="M20 21H5q-.825 0-1.413-.587Q3 19.825 3 19V5q0-.825.587-1.413Q4.175 3 5 3h15q.825 0 1.413.587Q22 4.175 22 5v14q0 .825-.587 1.413Q20.825 21 20 21ZM5 8h15V5H5Zm3 2H5v9h3Zm9 0v9h3v-9Zm-2 0h-5v9h5Z"/></svg>

<svg xmlns="http://www.w3.org/2000/svg" height="24" width="24"><path d="M20 21H5Q4.175 21 3.587 20.413Q3 19.825 3 19V5Q3 4.175 3.587 3.587Q4.175 3 5 3H20Q20.825 3 21.413 3.587Q22 4.175 22 5V19Q22 19.825 21.413 20.413Q20.825 21 20 21ZM5 8H20V5Q20 5 20 5Q20 5 20 5H5Q5 5 5 5Q5 5 5 5ZM8 10H5V19Q5 19 5 19Q5 19 5 19H8ZM17 10V19H20Q20 19 20 19Q20 19 20 19V10ZM15 10H10V19H15Z"/></svg>
